X:532
T:
S:Efter »Florsen» i Burs.
R:vals
O:Gotland, Burs
M:3/4
L:1/8
K:G
D2|(GA) B2 G2|B4 G2|(Bd) g2 B2|d4 B2|(AB) c2 F2|A4 G2|
(FA) e2 d2|c4 B2|(GA) B2 G2|B4 G2|(Bd) g2 B2|d4 B2|
(AB) c2 F2|A4 G2|(FA) e2 d2|G4::Bd|(gf)(fA)(Bc)|
(ed)(dG)(Bd)|(dc)(cF)(Ac)|(ed)(dG)(Bd)|(gf)(fA)(Bc)|
(ed)(dG)(Bd)|(dc)(cA)(FA)|G4:|

